X: 15359
T: Glanbargoed
R: polka
M: 2/4
K: Dmajor
ff ef/e/|dc BA|BB c/d/e/c/|dc d>e|
f2 ef/e/|d/e/d/c/ BA|B2 c/d/e/c/|dc d2||
ee fe/f/|^gf/g/ a>A|ea gf|e^d e2|
fg/f/ e/g/f/e/|df/e/ d/c/B/A/|BB ce/c/|dc d2||

